!!!!SEGMENT: 028-1-BH-021.krn
!!!COM: Chopin, Fryderyk
!!!OTL: No. 21.
!!!OPS: Op. 28
!!!PTL: Vingt-quatre Préludes pour le Piano
!!!PPR: Breitkopf & Härtel
!!!PPP: Leipzig
!!!AGN: Prelude
!!!NIFC-rismID: 1001013150
!!!NIFC-shelfmark: PL-Wbfc 4372/n
!!!OMD: Cantabile.
!!!system-decoration: {(s1,s2)}
**kern	**kern	**dynam
*part1	*part1	*part1
*staff2	*staff1	*
*clefF4	*clefG2	*
*k[b-e-]	*k[b-e-]	*
*B-:	*B-:	*
*M3/4	*M3/4	*
*MM100	*MM100	*
=1	=1	=1
*	*ped	*
!	!	!LO:HP:b=2
!!mixed beam:problem
(>8BBB-L/	(>2.ff	<
8F\	.	.
.	.	.
*	*Xped	*
8G 8En\	.	.
8A 8E-X\	.	.
8B- 8D\	.	.
8cJ 8C)\	.	[
=2	=2	=2
*	*ped	*
!	!	!LO:HP:b=2
(>8BB-L	2dd	<
8d 8F	.	.
*	*Xped	*
8G 8En	.	.
8A 8E-X	.	.
.	4qqff/	.
8B- 8D	4ee-	.
8BB-J)	.	[
=3	=3	=3
*	*ped	*
!	!	!LO:HP:b=2
!!mixed beam:problem
(>8EE-L/	2.dd	<
8G\	.	.
*	*Xped	*
8A 8F#X\	.	.
8Bn 8Fn\	.	.
8c 8E-\	.	.
8dJ 8D)\	.	[
=4	=4	=4
*	*ped	*
!	!LO:TX:t=P:problem:znak pedalizacji na kresce taktowej	!LO:HP:b=2
(>8CL	2g	<
8e- 8G	.	.
*	*Xped	*
8A 8F#X	.	.
8Bn 8Fn	.	.
8c 8E-	4e-)	.
8CJ)	.	[
=5	=5	=5
*ped	*	*
!!mixed beam:problem
8FFL/	(>4a	.
!	!	!LO:HP:b=2
(>8g-X 8B-\	.	>
8f 8A\	4ee-)	.
8c 8A-X\	.	.
8e- 8G\	(>4ee-	.
*Xped	*	*
8B- 8G-J	.	]
!!LO:LB:g=original
=6	=6	=6
*	*ped	*
8FFL)	4ee-	.
!	!	!LO:HP:b=2
(>8e-X 8G	.	>
.	16qqee-/LL	.
.	16qqff/	.
.	16qqee-/JJ	.
*	*Xped	*
8d 8F	4ddn	.
8G 8En	.	.
8A 8E-X	4ee-	.
8FJ	.	]
=7	=7	=7
*	*ped	*
8BB-L)	[>2gg	.
8F	.	.
*	*Xped	*
8G 8En	.	.
8A 8E-X	.	.
8B- 8D	8.ggL]	.
8cJ 8C	.	.
.	16ffJk	.
=8	=8	=8
*	*ped	*
(>8BB-L	2dd)	.
8d 8F	.	.
*	*Xped	*
8G 8En	.	.
8A 8E-X	.	.
8B- 8D	4r	.
8cJ 8C)	.	.
=9	=9	=9
*	*ped	*
!	!LO:TX:t=P:problem:znak pedalizacji na kresce taktowej	!
(>8GGL	(>2.bb-	.
8d	.	.
.	.	.
*	*Xped	*
8en 8c#X	.	<
8f#X> 8cn	.	.
8g> 8B-	.	.
8a>J 8A)	.	[[
=10	=10	=10
*	*ped	*
(>8BB-L	[>2b-	.
8B-	.	.
*	*Xped	*
!	!	!LO:HP:b=2
8c 8A	.	<
8d 8A-X	.	.
8e- 8G	8.b-L])	.
8fJ 8F)	.	[
.	16b-Jk	.
=11	=11	=11
*	*ped	*
(>8EE-L	(>2.gg	.
!	!	!LO:HP:b=2
8G	.	<
*	*Xped	*
8An 8F#X	.	.
.	.	.
8Bn 8Fn	.	.
8c 8E-	.	.
8dJ 8D)	.	[
!!LO:LB:g=original
=12	=12	=12
*	*ped	*
8CL	4g	.
8e- 8G	.	.
.	8qqg/L	.
.	8qqa/	.
.	8qqg/	.
.	8qqf#/	.
.	8qqg/J	.
*	*Xped	*
!	!	!LO:HP:b=2
8A 8F#X	4ee-	<
8Bn 8Fn	.	.
*	*ped	*
8c 8E-	4cc	.
8e->J 8C	.	[
=13	=13	=13
8FF	8a)	.
*clefG2	*	*
(<8ddL 8f	(>8dddL 8ff	>
*	*Xped	*
8g 8en	8gg 8een	.
8a 8e-X	8aa 8ee-X	.
8b- 8d	8bb- 8dd	.
8fJ 8d-X	8ffJ 8dd-X	.
=14	=14	=14
8a-XL 8c	8aa-XL 8cc	.
8g-X 8B-	8gg-X 8b-	.
8c 8An	8cc 8an	.
8d 8A-X	8dd 8a-X	.
8e- 8G	8ee- 8g	.
!LO:TX:a:t=P:problem:klucz basowy na kresce taktowej	!	!
8B-J 8G-X)	8b-J 8g-X)	]
*clefF4	*	*
=15	=15	=15
8BB-L	8r	>
(>8d 8F	(>8ddL 8f	.
8G 8En	8g 8en	.
8A 8E-X	8a 8e-X	.
8B- 8D	8b- 8d	.
8FJ)	8fJ	.
.	.	]
=16	=16	=16
(>8BB-L	8B-)	.
8d 8F	8r	>
8G 8En	4r	.
8A 8E-X	.	.
8B- 8D	4r	.
8BB-J)	.	.
!!LO:LB:g=original
=17	=17	=17
*ped	*	*
!!mixed beam:problem
(>8GGG-XL/	(>2.bb- 2.dd-X 2.b-	f
8B- 8D-X\	.	.
8d- 8G-X\	.	.
8e- 8B-\	.	.
8d- 8G-\	.	.
8B-J 8D-\	.	.
=18	=18	=18
8d-XL 8G-X	2gg-X 2b- 2g-X	.
8e- 8B-	.	.
8d- 8G-	.	.
8B- 8D-	.	.
8d- 8G-	4ccc-X 4ee- 4cc-X	.
*Xped	*	*
8e-J 8B-	.	.
=19	=19	=19
*ped	*	*
8d-XL 8G-X	2.bb- 2.dd- 2.b-	.
8B- 8D-	.	.
8d- 8G-	.	.
8e- 8B-	.	.
8d- 8G-	.	.
8B-J 8D-	.	.
=20	=20	=20
8d-XL 8G-X	2.gg-X 2.b- 2.g-X)	.
8e- 8B-	.	.
8d- 8G-	.	.
8B- 8D-	.	.
8d- 8G-	.	.
8e-J 8B-	.	.
=21	=21	=21
8d-XL 8G-X	(>2ddd-X 2bb- 2dd-X	.
8B- 8D-	.	.
8d- 8G-	.	.
8e- 8B-	.	.
8d- 8G-	4bb- 4gg- 4b-	.
8B-J 8D-	.	.
=22	=22	=22
8d-XL 8G-X	2ggg-X 2bb- 2gg-X	.
8e- 8B-	.	.
8d- 8G-	.	.
8B- 8D-	.	.
8d- 8G-	4ddd-X 4bb- 4dd-X	.
8e-J 8B-	.	.
!!LO:PB:g=original
=23	=23	=23
.	8qccc- 8qcc-/	.
8d-XL 8G-X	4ccc-y 4cc-y	.
8B- 8D-X	.	.
8d- 8G-	4bb- 4gg- 4b-)	.
8e- 8B-	.	.
8d- 8G-	4r	.
8B-J 8D-)	.	.
=24	=24	=24
(>8d-XL 8G-X	2.rdd	.
8e- 8B-	.	.
8d- 8G-	.	.
8B- 8D-y	.	.
8d- 8G-	.	.
8e-J 8B-	.	.
*Xped	*	*
=25	=25	=25
8f-XL 8G-X	(>2.bb-X 2.dd-y 2.b-X	pp
8d-X 8B-	.	.
8g-X 8G-	.	.
8e- 8B-	.	.
8f- 8G-	.	.
8d-J 8B-	.	.
=26	=26	=26
8G-XL	2gg-X 2b- 2g-X	.
8e- 8B-	.	.
8f-X 8G-	.	.
8d-X 8B-	.	.
8g-X 8G-	4ccc-X 4ee- 4cc-X	.
8e-J 8B-	.	.
=27	=27	=27
8f-XL 8G-X	2.bb- 2.dd- 2.b-	.
8d-X 8B-	.	.
8g-X 8G-	.	.
8e- 8B-	.	.
8f- 8G-	.	.
8d-J 8B-	.	.
=28	=28	=28
8G-XL	2.gg-X 2.b- 2.g-X	.
8e- 8B-	.	.
8f-X 8G-	.	.
8d-y 8B-	.	.
8g- 8G-	.	.
8e-J 8B-	.	.
!!LO:LB:g=original
=29	=29	=29
8f-XL 8G-X	2ddd-X 2bb- 2dd-X	.
8d-X 8B-	.	.
8g-X 8G-	.	.
8e- 8B-	.	.
8f- 8G-	4bb- 4gg-X 4b-	.
8d-J 8B-	.	.
=30	=30	=30
8g-XL 8G-X	2ggg-X 2bb- 2gg-X	.
8e- 8B-	.	.
8f-X 8G-	.	.
8d-X 8B-	.	.
8g- 8G-	4ddd-X 4bb- 4dd-X	.
8e-J 8B-	.	.
=31	=31	=31
.	8qddd-/ 8qbb- 8qdd-	.
8f-XL 8G-X	4ccc-X 4aa-y 4cc-X	.
8d-X 8B-	.	.
8g-X 8G-	4bb- 4gg-X 4b-)	.
8e- 8B-	.	.
8f- 8G-	4r	.
8d-J 8B-	.	.
=32	=32	=32
!	!	!LO:HP:b=2
8g-XL 8G-X	2.rdd	<
8e- 8B-	.	.
8f-X 8G-	.	.
8d-X 8B-	.	.
8en 8G-	.	.
8cJ 8B-)	.	[
=33	=33	=33
*	*^	*
!!mixed beam:problem
8FFFL/	4ff^>	8re	.
*ped	*	*	*
!	!	!LO:TX:B:i:t=cres_:problem:dynamics with extention lines	!
!	!	!	!LO:HP:b:iB:t=cres:ext=ud
(>8F\	.	8fL	<
8G 8En\	2ryy	8g 8en	.
*Xped	*	*	*
8A 8E-X\	.	8a 8e-X	.
8B- 8D\	.	8b- 8d	.
8CJ\	.	8ccJ 8c	.
=34	=34	=34	=34
*ped	*	*	*
!!mixed beam:problem
8FF'<L)/	4dd	8re	.
(>8F\	.	(>8fL	.
*Xped	*	*	*
8G 8En\	2ryy	8g 8en	.
8A 8E-X\	.	8a 8e-X	.
8B- 8D\	.	8b- 8d	.
8FJ\	.	8ddJ)	[
!!LO:LB:g=original
=35	=35	=35	=35
*ped	*	*	*
!!mixed beam:problem
8FFL)/	(>4gg^>	8rg	.
!	!	!LO:TX:B:i:t=cres_:problem:dynamics with extention lines	!
!	!	!	!LO:HP:b:iB:t=cres:ext=ud
(>8G\	.	8gL	<
*Xped	*	*	*
8A 8F#X\	2ryy	8a 8f#X	.
8Bn 8Fn\	.	8bn 8fn	.
8c 8E-\	.	8cc 8e-	.
8DJ\	.	8ddJ 8d	.
=36	=36	=36	=36
*ped	*	*	*
!!mixed beam:problem
8FFL)/	4ee-)	8rg	.
(>8G\	.	(>8gL	.
8A 8F#X\	2ryy	8a 8f#X	.
8Bn 8Fn\	.	8bn 8fn	.
8c 8E-\	.	8cc 8e-	.
*Xped	*	*	*
8GJ\	.	8ee-J	.
=37	=37	=37	=37
*ped	*	*	*
!!mixed beam:problem
8FFL)/	(>4aa^>)	8rg	.
(>8A\	.	8aL	.
*Xped	*	*	*
8Bn 8G#X\	2ryy	8bn 8g#X	.
8c#X 8Gn\	.	8cc#X 8gn	.
8d 8F\	.	8dd 8f	.
8AJ\	.	8ffJ	.
=38	=38	=38	=38
*ped	*	*	*
!!mixed beam:problem
8FFL)/	4bb-^>)	8rg	.
(>8B-\	.	(>8b-L	.
8c 8A\	2ryy	8cc 8a	.
*Xped	*	*	*
8d 8A-X\	.	8dd 8a-X	.
8e- 8G\	.	8ee- 8g	.
8G-XJ\	.	8gg-XJ 8g-X)	[
*	*v	*v	*
=39	=39	=39
*ped	*	*
!LO:TX:b:t=P:problem:znak pedalizacji pod kluczem wiolinowym	!	!
8FF 8FFF'<)	8r	ff
*clefG2	*	*
8fL/	(>8ffL	.
8ee- 8b- 8g-X	8eee-^< 8bb- 8gg-X	.
8f	8ff	.
8ee- 8b- 8g-	8eee-^< 8bb- 8gg-	.
8fJ	8ffJ	.
!!LO:LB:g=original
=40	=40	=40
8ee-L 8b- 8g-X	8eee-L 8bb- 8gg-X	.
8f	8ff	.
8ee- 8b- 8g-	8eee- 8bb- 8gg-	.
8f	8ff	.
8ee- 8b- 8g-	8eee- 8bb- 8gg-	.
8fJ	8ffJ)	.
*Xped	*	*
=41	=41	=41
8ee-L 8a 8g-X	(>8eee-L 8gg-X	.
8dd 8f	8ddd 8ff	.
8gn 8en	8ggn 8een	.
!	!LO:TX:B:i:t=dim_:problem:dynamics with extention lines	!
!	!	!LO:HP:b:B:i:t=dim:ext=ud
8a 8e-X	8aa 8ee-X	>
8b- 8d	8bb- 8dd	.
8fJ 8d-X	8ffJ 8dd-X	.
=42	=42	=42
*	*	*^
8a-XL 8c	8aa-XL 8cc	.	.
8g-X 8B-	8gg-X 8b-	.	.
*clefF4	*	*	*
!	!	!	!LO:HP:b=2
8c 8An	8cc 8an	.	>
8d 8A-X	8dd 8a-X	.	.
8e- 8Gn	8ee- 8gn	.	.
8B-J 8G-X	8b-J 8g-X	.	.
.	.	]	.
!!LO:LB:g=original
=43	=43	=43	=43
8d-XL 8F	8dd-XL 8f	.	]
8c 8En	8cc 8en	.	.
8G 8E-X	8g 8e-X	.	.
8G#X 8Dn	8g#X 8dn	.	.
8A 8C#X	8a 8c#X	.	.
8E-J 8Cn	8e-J 8cn	.	.
*	*	*v	*v
=44	=44	=44
*	*^	*
8G-XL\ 8BB-	8g-XL 8B-	2ryy	.
8F 8AA	8f 8A<	.	.
8C 8AA-	8c< 8A-X<	.	.
8D 8GGn	8d<J 8Gn<	.	.
8E- 8GG-X	4e-<^>	8G-X<L<	.
8FFJ	.	8An<J 8F<	.
*	*v	*v	*
!!LO:LB:g=original
=45	=45	=45
*ped	*	*
!!mixed beam:problem
8BBB-L/	8d< 8B-< 8F<)	.
(>8En\	8r	.
8F\	4r	.
8B-\	.	.
8A\	4r	.
*Xped	*	*
8GJ)\	.	.
=46	=46	=46
*	*^	*
*ped	*	*	*
!!mixed beam:problem
8FF'<L/	2ryy	8r	>
(>8e- 8G-X\	.	(>8ee-L 8g-X	.
*Xped	*	*	*
8A 8F\	.	8a 8f	.
8B- 8En\	.	8b- 8en	]
8c 8E-X\	4cc	8cc 8e-X	.
8G-J\	.	8g-J	.
*	*v	*v	*
=47	=47	=47
*ped	*	*
!	!LO:S:s=1:note:problem:note-level slur	!
8BB-L)	4dd) 4b- 4f 4d	.
(>8En	.	.
8F	4r	.
8B-	.	.
8A	4r	.
*Xped	*	*
8GJ)	.	.
=48	=48	=48
*	*^	*
(>8FFL	2ryy	8r	.
!	!	!	!LO:HP:a
8e- 8G-X	.	(>8ee-L 8g-X	>
8A 8F	.	8a 8f	.
8B- 8En	.	8b- 8en	.
8c 8E-X	4cc	8cc 8e-X	.
8G-J)	.	8g-J	.
*	*v	*v	*
=49	=49	=49
!	!LO:S:s=1:note:problem:note-level slur	!
(<8BBB-L	4dd) 4b- 4f 4d	] <
8EEn	.	.
8FF	4r	.
8BB-	.	.
8AA	4r	.
8GGJ	.	.
.	.	[
=50	=50	=50
*	*^	*
!	!LO:S:s=1:note:problem:note-level slur	!	!
!	!LO:N:n=2:vis=4	!	!
2GGG)/	(>2g 2B-< 2G<	4.d	.
.	.	.	.
.	.	8cL	.
(<4AA 4AAA/	4ryy	8e-	.
.	.	8dJ	.
=51	=51	=51	=51
!	!LO:S:s=1:note:problem:note-level slur	!	!
8BBB-L>	2f) 2B-< 2F<	2.d	.
8EEn	.	.	.
8FF	.	.	.
8BB-	.	.	.
8AA	4ryy	.	.
8GGJ)	.	.	.
!!LO:LB:g=original
=52	=52	=52	=52
!	!LO:N:n=2:vis=4	!	!
(<2GGG/	(>2g 2B-< 2G<	4.d^<	.
.	.	.	.
.	.	8cL	.
4AAA)/	4ryy	8e-	.
.	.	8dJ	.
=53	=53	=53	=53
(<8BBB-L>	[>2.f [>2.B-< [>2.F<	[>2.d	.
8EEn	.	.	.
8FF	.	.	.
8BB-	.	.	.
8AA	.	.	.
8GGJ	.	.	.
*	*v	*v	*
=54	=54	=54
*	*	*^
8BBB-L>	2.f] 2.d] 2.B-<] 2.F<])	<	.
8EEn	.	.	.
8FF	.	.	.
8BB-	.	.	.
8AA	.	.	.
8GGJ)	.	.	.
=55	=55	=55	=55
(>8E-L	2.rdd	.	.
8C#X	.	.	<
8D	.	.	.
8G	.	.	.
8En	.	.	.
8FJ	.	.	.
.	.	[	.
*	*	*v	*v
=56	=56	=56
*ped	*	*
!	!LO:TX:a:t=P:problem:forte na górnej pięciolinii	!LO:DY:a
4d^>)	2.rdd	f
4r	.	.
*Xped	*	*
4r	.	.
=57	=57	=57
*	*^	*
*ped	*	*	*
!	!LO:S:s=1:note:problem:note-level slur	!	!
2.FF 2.FFF	(>2.f 2.e- 2.F<	2.c^<\	.
*Xped	*	*	*
=58	=58	=58	=58
*ped	*	*	*
!	!LO:S:s=1:note:problem:note-level slur	!	!
!LO:TX:b:B:t=Fine.	!	!	!
2.BB- 2.BBB-	2.f) 2.d 2.F<	2.B-<^>/	[
*	*v	*v	*
==	==	==
*-	*-	*-
!!title: @{OTL}; @{OPS} @{ONM} publisher: @{PPR}
!!!RDF**kern: > = above
!!!RDF**kern: < = below
!!!RDF**dynam: > = "dim.", fontstyle = "bold-italic"
!!!RDF**dynam: < = "cres.", fontstyle = "bold-italic"
!!!ENC: Wojciech Jakubiak-Danek
!!!END: 2019-06-28
!!!EED: 
!!!EST: 
!!!rism-genre: Prelude
!!!rism-key: B-flat major
!!!rism-opus: op.  28, no. 21
!!!rism-title: Prelude in B-flat major op.  28, no. 21
!!!rism-permalink: https://opac.rism.info/search?id=1001013150&View=rism
!!!rism-773a-OPR: 1001013083
!!!rism-parent-permalink: https://opac.rism.info/search?id=1001013083&View=rism
